Obsidian-SemiLight/actions/22s/games-difficult.svg

<svg viewBox="0 0 22 22" xmlns="http://www.w3.org/2000/svg"><path d="m15 3v16h4v-16zm1 1h2v14h-2zm-7 4v11h4v-11zm1 1h2v9h-2zm-7 5v5h4v-5zm1 1h2v3h-2z" fill="#4d4d4d"/></svg>

<svg xmlns="http://www.w3.org/2000/svg" viewBox="0 0 22 22">
  <defs id="defs3051">
    <style type="text/css" id="current-color-scheme">
      .ColorScheme-Text {
        color:#4d4d4d;
      }
      </style>
  </defs>
 <path 
    style="fill:currentColor;fill-opacity:1;stroke:none" 
    d="M 15 3 L 15 19 L 19 19 L 19 3 L 15 3 z M 16 4 L 18 4 L 18 18 L 16 18 L 16 4 z M 9 8 L 9 19 L 13 19 L 13 8 L 9 8 z M 10 9 L 12 9 L 12 18 L 10 18 L 10 9 z M 3 14 L 3 19 L 7 19 L 7 14 L 3 14 z M 4 15 L 6 15 L 6 18 L 4 18 L 4 15 z "
    class="ColorScheme-Text"
    />  
</svg>
